X:1
T:Llanfyllin, 76.76 D
T:Llanfyllin, 76.76 D
T:Traditional Welsh melody, published 1865
T:Public Domain Courtesy of the Cyber Hymnal™
C:Traditional Welsh melody, published 1865
Z:Public Domain
Z:Courtesy of the Cyber Hymnal™
%%score ( 1 2 ) ( 3 4 )
L:1/8
Q:1/4=110
M:4/4
K:G
V:1 treble 
V:2 treble 
V:3 bass 
V:4 bass 
V:1
 D2 | G2 [DG]2 [EA]2 [DA]2 | ([B,B]3 [CA]) [DG]2 [DG]2 | [Cc]2 [Ec]2 [DB]2 [DB]2 | [DA]6 D2 | %5
 [B,G]2 [EG]2 [EA]2 [DA]2 | B3 z c [Fd]2 [Ec]2 | [DB]2 [B,G]2 [EA]2 [DF]2 | [DG]6 [Gd]2 | %9
 [Fd]2 [GB]2 [EA]2 [Ec]2 | B4 [EA]2 [B,G]2 | [DF]2 [DG]2 [Dc]2 [DB]2 | [DA]6 D2 | %13
 G2 [EG]2 [EA]2 [DA]2 | B3 (z c) [Fd]2 c2 x | [DB]2 [EG]2 [EA]2 [DF]2 | [DG]6 |] %17
V:2
 D2 | G2 x6 | x8 | x8 | x6 (DC) | x8 | D2 E2 x5 | x8 | x8 | x8 | (G2 F2) x4 | x8 | x6 D2 | G2 x6 | %14
 (D2 G2 x ED) x3 | x8 | x6 |] %17
V:3
 D,2 | G,2 [B,,G,]2 [C,G,]2 [D,F,]2 | (G,3 A,) [G,B,]2 B,2 | [E,G,]2 [C,G,]2 [G,,G,]2 [B,,G,]2 | %4
 [D,F,]6 [D,F,]2 | [E,G,]2 B,2 (A,G,) [D,F,]2 | G,4 [D,A,]2 (A,G,) x | %7
 [B,,F,]2 [E,G,]2 [C,C]2 [D,A,]2 | [G,,B,]6 ([G,B,][A,C]) | [B,D]2 [G,D]2 [A,C]2 [A,,A,]2 | %10
 [B,,D]4 [C,C]2 [E,G,]2 | B,2 [B,,G,]2 [A,,F,]2 G,2 | [D,F,]6 D,2 | G,2 B,2 [C,A,]2 [D,F,]2 | %14
 G,4 E,2 [D,A,]2 ([E,G,][F,A,]) | [G,B,]2 [E,B,]2 [C,C]2 [D,A,]2 | [G,,B,]6 |] %17
V:4
 D,2 | G,2 x6 | G,,4 (G,F,) x2 | x8 | x8 | x2 E,D, C,2 x2 | G,2 E,2 A,,2 x3 | x8 | x8 | x8 | x8 | %11
 (D,C,) x3 (B,,C,) x | x6 D,2 | G,2 (E,D,) x4 | G,2 x8 | x8 | x6 |] %17

